img/section4-3-sb25.svg

<svg fill="none" height="73" viewBox="0 0 50 73" width="50" xmlns="http://www.w3.org/2000/svg"><g fill="#b5bd00"><path d="m21.3963 23.9951h-14.83039c-1.76188.0226-3.44281.7434-4.67376 2.0041-1.230949 1.2608-1.9113174 2.9584-1.89173886 4.7204v35.4561c-.01957854 1.7619.66078986 3.4596 1.89173886 4.7203 1.23095 1.2608 2.91188 1.9815 4.67376 2.0041h14.83039c1.7619-.0226 3.4429-.7433 4.6738-2.0041 1.231-1.2607 1.9113-2.9584 1.8917-4.7203v-35.4561c.0196-1.762-.6607-3.4596-1.8917-4.7204-1.2309-1.2607-2.9119-1.9815-4.6738-2.0041zm-7.4091 3.8268h-3.0565v-1.3815h6.1131v1.3815zm11.5416 38.3599c.0197 1.1134-.4031 2.1892-1.1755 2.9914-.7723.8022-1.8314 1.2653-2.9447 1.2878h-14.84269c-1.11285-.0241-2.17091-.4877-2.94297-1.2896-.77205-.8018-1.19531-1.8766-1.17728-2.9896v-35.4561c-.01803-1.113.40523-2.1878 1.17728-2.9897.77206-.8018 1.83012-1.2654 2.94297-1.2895h1.93174v2.6042c0 .3242.12882.6352.3581.8645.22929.2293.54027.3581.86453.3581h8.55842c.3242 0 .6352-.1288.8645-.3581s.3581-.5403.3581-.8645v-2.6103h1.895c1.1134.0225 2.1724.4856 2.9448 1.2878s1.1951 1.8779 1.1755 2.9914z"/><path d="m32.4002 12.4414h-14.8182c-.8734.0096-1.7364.1911-2.5397.5343-.8033.3431-1.5311.8411-2.1419 1.4655s-1.0927 1.3631-1.418 2.1737c-.3253.8107-.4878 1.6775-.4781 2.5509v2.0785c0 .3243.1288.6352.3581.8645s.5403.3581.8645.3581c.3243 0 .6353-.1288.8646-.3581s.3581-.5402.3581-.8645v-2.0785c-.0197-1.1134.403-2.1892 1.1754-2.9913.7724-.8022 1.8314-1.2654 2.9448-1.2878h1.9256v2.6041c0 .3243.1289.6353.3581.8646.2293.2293.5403.3581.8646.3581h8.5583c.3243 0 .6353-.1288.8646-.3581s.3581-.5403.3581-.8646v-2.6041h1.9011c1.114.0224 2.1736.4854 2.947 1.2874.7733.802 1.1974 1.8777 1.1794 2.9917v35.4562c.0164 1.1135-.4082 2.1883-1.1812 2.99-.7731.8016-1.8318 1.2651-2.9452 1.2892h-1.95c-.3243 0-.6353.1288-.8646.3581-.2292.2292-.3581.5402-.3581.8645 0 .3242.1289.6352.3581.8645.2293.2293.5403.3581.8646.3581h1.95c.8743-.0088 1.7383-.1897 2.5426-.5324s1.5333-.8405 2.1452-1.4649 1.0949-1.3633 1.4213-2.1744.4898-1.6785.4809-2.5527v-35.4562c.0089-.8742-.1545-1.7416-.4809-2.5527s-.8094-1.55-1.4213-2.1744-1.3409-1.1222-2.1452-1.4649-1.6683-.5236-2.5426-.5324zm-4.3708 3.8268h-6.1132v-1.3815h6.1132z"/><path d="m43.4337.826172h-14.8427c-1.7645.019354-3.4492.738518-4.6838 1.999438-1.2345 1.26092-1.918 2.96042-1.9 4.725v2.33521c0 .32428.1288.63528.3581.86448.2293.2293.5402.3581.8645.3581s.6352-.1288.8645-.3581c.2293-.2292.3581-.5402.3581-.86448v-2.33521c-.018-1.11296.4053-2.18781 1.1773-2.98964.7721-.80184 1.8301-1.26546 2.943-1.28955h1.9317v2.60419c0 .32426.1288.63524.3581.86453s.5403.3581.8645.3581h8.5584c.3243 0 .6353-.12881.8646-.3581.2292-.22929.358-.54027.358-.86453v-2.60419h1.9257c1.1134.02249 2.1724.48561 2.9448 1.2878s1.1951 1.87796 1.1754 2.99139v35.45609c.0181 1.113-.4052 2.1878-1.1773 2.9897-.772.8018-1.8301 1.2654-2.9429 1.2895h-1.834c-.3242 0-.6352.1288-.8645.3581s-.3581.5403-.3581.8645c0 .3243.1288.6353.3581.8646s.5403.3581.8645.3581h1.834c1.7613-.0242 3.4413-.7455 4.6719-2.0059s1.9115-2.9571 1.8936-4.7186v-35.45609c.0179-1.76144-.663-3.45819-1.8936-4.71859-1.2306-1.26039-2.9106-1.981676-4.6719-2.005848zm-4.3709 3.826818h-6.1131v-1.38157h6.1131z"/></g></svg>

<svg width="50" height="73" viewBox="0 0 50 73" fill="none" xmlns="http://www.w3.org/2000/svg">
<path d="M21.3963 23.9951H6.56591C4.80403 24.0177 3.1231 24.7385 1.89215 25.9992C0.661201 27.26 -0.0191674 28.9576 0.000411141 30.7196V66.1757C-0.0191674 67.9376 0.661201 69.6353 1.89215 70.896C3.1231 72.1568 4.80403 72.8775 6.56591 72.9001H21.3963C23.1582 72.8775 24.8392 72.1568 26.0701 70.896C27.3011 69.6353 27.9814 67.9376 27.9618 66.1757V30.7196C27.9814 28.9576 27.3011 27.26 26.0701 25.9992C24.8392 24.7385 23.1582 24.0177 21.3963 23.9951ZM13.9872 27.8219H10.9307V26.4404H17.0438V27.8219H13.9872ZM25.5288 66.1818C25.5485 67.2952 25.1257 68.371 24.3533 69.1732C23.581 69.9754 22.5219 70.4385 21.4086 70.461H6.56591C5.45306 70.4369 4.395 69.9733 3.62294 69.1714C2.85089 68.3696 2.42763 67.2948 2.44566 66.1818V30.7257C2.42763 29.6127 2.85089 28.5379 3.62294 27.736C4.395 26.9342 5.45306 26.4706 6.56591 26.4465H8.49765V29.0507C8.49765 29.3749 8.62647 29.6859 8.85575 29.9152C9.08504 30.1445 9.39602 30.2733 9.72028 30.2733H18.2787C18.6029 30.2733 18.9139 30.1445 19.1432 29.9152C19.3725 29.6859 19.5013 29.3749 19.5013 29.0507V26.4404H21.3963C22.5097 26.4629 23.5687 26.926 24.3411 27.7282C25.1135 28.5304 25.5362 29.6061 25.5166 30.7196L25.5288 66.1818Z" fill="#B5BD00"/>
<path d="M32.4002 12.4414H17.582C16.7086 12.451 15.8456 12.6325 15.0423 12.9757C14.239 13.3188 13.5112 13.8168 12.9004 14.4412C12.2896 15.0656 11.8077 15.8043 11.4824 16.6149C11.1571 17.4256 10.9946 18.2924 11.0043 19.1658V21.2443C11.0043 21.5686 11.1331 21.8795 11.3624 22.1088C11.5917 22.3381 11.9027 22.4669 12.2269 22.4669C12.5512 22.4669 12.8622 22.3381 13.0915 22.1088C13.3208 21.8795 13.4496 21.5686 13.4496 21.2443V19.1658C13.4299 18.0524 13.8526 16.9766 14.625 16.1745C15.3974 15.3723 16.4564 14.9091 17.5698 14.8867H19.4954V17.4908C19.4954 17.8151 19.6243 18.1261 19.8535 18.3554C20.0828 18.5847 20.3938 18.7135 20.7181 18.7135H29.2764C29.6007 18.7135 29.9117 18.5847 30.141 18.3554C30.3703 18.1261 30.4991 17.8151 30.4991 17.4908V14.8867H32.4002C33.5142 14.9091 34.5738 15.3721 35.3472 16.1741C36.1205 16.9761 36.5446 18.0518 36.5266 19.1658V54.622C36.543 55.7355 36.1184 56.8103 35.3454 57.612C34.5723 58.4136 33.5136 58.8771 32.4002 58.9012H30.4502C30.1259 58.9012 29.8149 59.03 29.5856 59.2593C29.3564 59.4885 29.2275 59.7995 29.2275 60.1238C29.2275 60.448 29.3564 60.759 29.5856 60.9883C29.8149 61.2176 30.1259 61.3464 30.4502 61.3464H32.4002C33.2745 61.3376 34.1385 61.1567 34.9428 60.814C35.7471 60.4713 36.4761 59.9735 37.088 59.3491C37.6999 58.7247 38.1829 57.9858 38.5093 57.1747C38.8357 56.3636 38.9991 55.4962 38.9902 54.622V19.1658C38.9991 18.2916 38.8357 17.4242 38.5093 16.6131C38.1829 15.802 37.6999 15.0631 37.088 14.4387C36.4761 13.8143 35.7471 13.3165 34.9428 12.9738C34.1385 12.6311 33.2745 12.4502 32.4002 12.4414ZM28.0294 16.2682H21.9162V14.8867H28.0294V16.2682Z" fill="#B5BD00"/>
<path d="M43.4337 0.826172H28.591C26.8265 0.845526 25.1418 1.56469 23.9072 2.82561C22.6727 4.08653 21.9892 5.78603 22.0072 7.55061V9.88582C22.0072 10.2101 22.136 10.5211 22.3653 10.7503C22.5946 10.9796 22.9055 11.1084 23.2298 11.1084C23.5541 11.1084 23.865 10.9796 24.0943 10.7503C24.3236 10.5211 24.4524 10.2101 24.4524 9.88582V7.55061C24.4344 6.43765 24.8577 5.3628 25.6297 4.56097C26.4018 3.75913 27.4598 3.29551 28.5727 3.27142H30.5044V5.87561C30.5044 6.19987 30.6332 6.51085 30.8625 6.74014C31.0918 6.96943 31.4028 7.09824 31.727 7.09824H40.2854C40.6097 7.09824 40.9207 6.96943 41.15 6.74014C41.3792 6.51085 41.508 6.19987 41.508 5.87561V3.27142H43.4337C44.5471 3.29391 45.6061 3.75703 46.3785 4.55922C47.1509 5.36141 47.5736 6.43718 47.5539 7.55061V43.0067C47.572 44.1197 47.1487 45.1945 46.3766 45.9964C45.6046 46.7982 44.5465 47.2618 43.4337 47.2859H41.5997C41.2755 47.2859 40.9645 47.4147 40.7352 47.644C40.5059 47.8733 40.3771 48.1843 40.3771 48.5085C40.3771 48.8328 40.5059 49.1438 40.7352 49.3731C40.9645 49.6024 41.2755 49.7312 41.5997 49.7312H43.4337C45.195 49.707 46.875 48.9857 48.1056 47.7253C49.3362 46.4649 50.0171 44.7682 49.9992 43.0067V7.55061C50.0171 5.78917 49.3362 4.09242 48.1056 2.83202C46.875 1.57163 45.195 0.850344 43.4337 0.826172V0.826172ZM39.0628 4.65299H32.9497V3.27142H39.0628V4.65299Z" fill="#B5BD00"/>
</svg>
